X:1
T: Out of Work
R: jig
C: Rick Gagne
N: 1988 on tenor banjo
N: key could be called an F of some sort
N: works well played slowly
Q: 1/4=150
M: 6/8
K: Ddor
E | "F"FAc edc | "G"BcA GFE | "Dm"DFA cBA | "Em"BAG ^FGE |
"F"FAc edc | "G"BcA GFE | "Dm"DFA cBA | "Em"BAG E2 :|
E | "F"FAc FAc | "Em"EGB EGB | "Dm"DFA cBA | "C"BAG ^FGE |
"F"FAc FAc | "Em"EGB EGB | "Dm"DFA cBA | "Em"BAG E2 :|
